resources/icons/scopy-default/icons/menu.svg

<?xml version="1.0" encoding="UTF-8"?>
<svg width="20px" height="14px" version="1.1" viewBox="0 0 20 14" xmlns="http://www.w3.org/2000/svg">
 <g fill="#fff" fill-rule="evenodd">
  <path d="m0 12h20v2h-20v-2zm0-6h20v2h-20v-2zm0-6h20v2h-20v-2z"/>
 </g>
</svg>

<?xml version="1.0" encoding="UTF-8"?>
<svg width="20px" height="14px" viewBox="0 0 20 14" version="1.1" xmlns="http://www.w3.org/2000/svg" xmlns:xlink="http://www.w3.org/1999/xlink">
    <title>menu</title>
    <g id="menu" stroke="none" stroke-width="1" fill="none" fill-rule="evenodd">
        <path d="M0,12 L20,12 L20,14 L0,14 L0,12 L0,12 Z M0,6 L20,6 L20,8 L0,8 L0,6 L0,6 Z M0,0 L20,0 L20,2 L0,2 L0,0 L0,0 Z" fill="#FFFFFF"></path>
    </g>
</svg>
